core/img/actions/info-white.svg

<svg width="16" height="16" version="1.1" viewbox="0 0 16 16" xmlns="http://www.w3.org/2000/svg"><path d="m7.75 1a1.75 1.75 0 0 0-1.75 1.75 1.75 1.75 0 0 0 1.75 1.75 1.75 1.75 0 0 0 1.75-1.75 1.75 1.75 0 0 0-1.75-1.75zm-2.75 5c-0.554 0-1 0.446-1 1s0.446 1 1 1h2v5h-2c-0.554 0-1 0.446-1 1s0.446 1 1 1h6c0.554 0 1-0.446 1-1s-0.446-1-1-1h-2v-6c0-0.554-0.446-1-1-1h-3z" fill="#fff"/></svg>

<svg xmlns="http://www.w3.org/2000/svg" width="16" height="16"><path fill="#fff" d="M7.75 1A1.75 1.75 0 0 0 6 2.75 1.75 1.75 0 0 0 7.75 4.5 1.75 1.75 0 0 0 9.5 2.75 1.75 1.75 0 0 0 7.75 1zM5 6c-.554 0-1 .446-1 1s.446 1 1 1h2v5H5c-.554 0-1 .446-1 1s.446 1 1 1h6c.554 0 1-.446 1-1s-.446-1-1-1H9V7c0-.554-.446-1-1-1H5z"/></svg>
